X: 36845
T: Ships Are Sailing, The
R: reel
M: 4/4
K: Edorian
|:Beed BcdB|AD D2 AD D2|E3F GFGA|Beef gfed|
Beed BcdB|AD (3FED AD (3FED|E3F GFGA|Beed e3z:|
|:g3a bgeg|f3g afdf|g3a bgaf|gfed Be e2|
gfga bgeg|fefg afdf|g2bg f2af|edef gfed:|

